X:1
T:title
M:4/4
Q:120
L:1/8
R:Reel
K:C
 ^c'2 ^E2g2 _b' _d |  _g3 _e4a |  _Ge _df2 _E3 |  ^a' _b'4b'3 |  _f4 ^e'4 |  _a' _E2f2d'3 |  _A2 _b2 _B2 _d' _E | b'3 _C2 ^a2f' | 